resources/svg/picture-in-picture-2-fill.svg

<svg fill="currentColor" viewBox="0 0 24 24" xmlns="http://www.w3.org/2000/svg"><path d="M21 3C21.5523 3 22 3.44772 22 4V11H20V5H4V19H10V21H3C2.44772 21 2 20.5523 2 20V4C2 3.44772 2.44772 3 3 3H21ZM21 13C21.5523 13 22 13.4477 22 14V20C22 20.5523 21.5523 21 21 21H13C12.4477 21 12 20.5523 12 20V14C12 13.4477 12.4477 13 13 13H21ZM6.70711 6.29289L8.95689 8.54289L11 6.5V12H5.5L7.54289 9.95689L5.29289 7.70711L6.70711 6.29289Z"/></svg>

<svg xmlns="http://www.w3.org/2000/svg" viewBox="0 0 24 24" fill="currentColor">
    <g>
        <path fill="none" d="M0 0h24v24H0z"/>
        <path fill-rule="nonzero" d="M21 3a1 1 0 0 1 1 1v7h-2V5H4v14h6v2H3a1 1 0 0 1-1-1V4a1 1 0 0 1 1-1h18zm0 10a1 1 0 0 1 1 1v6a1 1 0 0 1-1 1h-8a1 1 0 0 1-1-1v-6a1 1 0 0 1 1-1h8zM6.707 6.293l2.25 2.25L11 6.5V12H5.5l2.043-2.043-2.25-2.25 1.414-1.414z"/>
    </g>
</svg>
